X:1
T:Vals efter Ola Olsson
M:3/8
L:1/16
Q:75 
R:Vals
K:D
O:SKarup, Blekinge
D2F2A2 | d2f2a2 | e2efge | f2d2A2 | D2F2A2 | d2f2a2 | e2efge |1 d6 :|2 d4 cd  
|: edcBA2 | edcBA2 | B2BcdB | c2A2cd |  edcBA2 | edcBA2 | B2BcdB | A2AGFE 
| D2F2A2 | d2f2a2 | e2efge | f2d2A2 | D2F2A2 | d2f2a2 |  b2bgec |1 d4 cd :|2 d6 |

